packages/core/src/svgs/tokens/branded/FAKEAI.svg

<svg width="24" height="24" viewBox="0 0 24 24" fill="none" xmlns="http://www.w3.org/2000/svg">
<path d="M18.0626 4.10525C19.5511 5.29112 20.7016 6.84743 21.3988 8.61815C22.6286 11.8425 21.9048 15.5199 19.8102 18.2087C18.9056 19.3108 17.7866 20.2174 16.5212 20.8742C14.5268 21.9341 12.2233 22.2589 10.0136 21.792C7.95482 21.3421 6.08587 20.2656 4.66357 18.7105C3.24126 17.1555 2.3354 15.1981 2.07044 13.1075C2.05177 12.9572 2.04194 12.8059 2.04102 12.6544L2.02337 12.5427C1.99883 12.2353 1.99491 11.9268 2.0116 11.6189L2.02337 11.5012C2.03513 11.46 2.04102 11.4129 2.04102 11.3658L2.06455 10.9835C2.15282 10.0656 2.35875 9.18887 2.70001 8.35926C3.14269 7.21103 3.81318 6.16426 4.67109 5.28202C5.686 4.18594 6.92935 3.32624 8.31319 2.76373C9.90807 2.08634 11.6564 1.85339 13.373 2.08958C15.0895 2.32577 16.7101 3.0223 18.0626 4.10525ZM2.19401 10.654C1.97042 12.3015 2.13516 13.7606 2.69412 15.3257C3.21397 16.7402 4.0456 18.0193 5.12733 19.0685C6.20905 20.1176 7.51311 20.9098 8.94276 21.386C9.77023 21.6926 10.6435 21.8576 11.5257 21.8744C13.3128 21.9541 15.0881 21.5475 16.6623 20.6977C17.8748 20.0446 18.9418 19.1518 19.7984 18.0735C21.4459 15.8964 22.2167 13.2017 21.799 10.4656C21.3812 7.7591 19.7101 5.34673 17.4803 3.76987C16.5463 3.12069 15.5012 2.64808 14.397 2.3754C12.7038 1.95862 10.9303 1.99883 9.25773 2.49192C7.5851 2.98503 6.07338 3.91334 4.87703 5.18199C4.27099 5.82332 3.70026 6.5235 3.28839 7.30017C2.97067 7.88855 2.71178 8.51812 2.50584 9.183C2.37639 9.58903 2.27049 10.0774 2.19401 10.654ZM8.26023 20.9154C6.46582 20.1532 4.93815 18.8753 3.8709 17.2439C2.7683 15.5696 2.21693 13.5927 2.29402 11.5895C2.36463 10.089 2.75297 8.71229 3.45903 7.4002C3.95909 6.50769 4.59421 5.69792 5.34185 4.99958C6.19071 4.18907 7.17949 3.53918 8.26023 3.08146C9.63115 2.49308 11.1669 2.14005 12.6614 2.27538C14.6912 2.45189 16.5858 3.18736 18.1215 4.49946C19.2277 5.44087 20.1103 6.56468 20.7634 7.85913C22.4696 11.2423 21.799 15.3081 19.4513 18.1971C18.5872 19.2011 17.5386 20.0299 16.3623 20.6388C14.8902 21.3919 13.2486 21.7527 11.5963 21.6862L11.4199 21.6684C10.3286 21.6192 9.25649 21.3635 8.26023 20.9154ZM19.7219 10.7127C19.1806 7.03539 16.6388 4.58184 12.9909 4.01699C11.8756 3.87154 10.7417 3.98633 9.67824 4.35237C8.02207 4.83265 6.57072 5.84614 5.54941 7.23555C4.52809 8.62496 3.99391 10.3127 4.02976 12.0366C4.05706 13.2842 4.38799 14.5062 4.99389 15.5971C5.5998 16.6879 6.46243 17.6147 7.50711 18.297C8.94197 19.1867 10.6026 19.6441 12.2907 19.615C12.864 19.6168 13.4341 19.5274 13.9794 19.3503C14.9384 19.0443 15.8328 18.6442 16.627 18.0205C17.7524 17.1932 18.6336 16.0779 19.1784 14.7918C19.723 13.5058 19.9108 12.0966 19.7219 10.7127ZM5.33597 15.5081C6.27738 17.132 7.93074 18.45 9.83118 18.9442C10.5326 19.1376 11.2524 19.256 11.9788 19.2973C11.9853 19.291 11.9894 19.2826 11.9906 19.2737V17.8911L11.9965 14.5784C11.9965 14.1961 12.4671 13.8429 12.7907 13.5958L12.9085 13.5075C13.0849 13.3723 13.1438 13.3193 13.1791 13.1664C13.1791 13.1664 13.1673 12.6956 13.1732 12.319V10.5539C13.1438 10.4069 12.9143 10.2892 12.7261 10.1891C12.6658 10.1606 12.6069 10.1291 12.5495 10.0949C12.3907 9.98909 11.9965 9.65369 11.9965 9.41838V4.50534C11.9965 4.45828 11.9847 4.41709 11.9729 4.38767L11.9612 4.35237C11.9553 4.31119 11.9317 4.29353 11.8905 4.29353C11.0609 4.31119 10.2431 4.54653 9.47231 4.80543C8.0896 5.27613 7.02463 6.04103 6.05968 7.12953C5.27125 8.01211 4.80054 9.24772 4.53577 10.3773C4.24746 11.6013 4.33572 12.9427 4.7417 14.1608C4.90645 14.6726 5.1065 15.1197 5.33008 15.514L5.33597 15.5081Z" fill="black"/>
</svg>

<svg xmlns="http://www.w3.org/2000/svg" width="24" height="24" fill="none" viewBox="0 0 24 24">
    <path fill="#000" d="M18.063 4.105a10.85 10.85 0 0 1 3.336 4.513c1.23 3.224.506 6.902-1.589 9.59a10.5 10.5 0 0 1-3.289 2.666 9.63 9.63 0 0 1-6.507.918 10.2 10.2 0 0 1-7.944-8.685 4 4 0 0 1-.029-.453l-.018-.111a7 7 0 0 1-.011-.924l.011-.118a.5.5 0 0 0 .018-.135l.024-.383A9.2 9.2 0 0 1 2.7 8.36a9.1 9.1 0 0 1 1.971-3.077 10.2 10.2 0 0 1 3.642-2.518 9.6 9.6 0 0 1 9.75 1.341M2.194 10.654c-.224 1.648-.059 3.107.5 4.672a10.04 10.04 0 0 0 6.249 6.06c.827.307 1.7.472 2.583.488a9.9 9.9 0 0 0 5.136-1.176 10.2 10.2 0 0 0 3.136-2.625c1.648-2.177 2.419-4.871 2.001-7.607-.418-2.707-2.089-5.12-4.319-6.696a9.3 9.3 0 0 0-3.083-1.395 9.85 9.85 0 0 0-9.52 2.807C4.271 5.823 3.7 6.524 3.288 7.3a10.5 10.5 0 0 0-.782 1.883q-.196.607-.312 1.471M8.26 20.915a9.84 9.84 0 0 1-4.39-3.671 9.6 9.6 0 0 1-1.576-5.655c.07-1.5.459-2.877 1.165-4.189A10 10 0 0 1 5.342 5 9.7 9.7 0 0 1 8.26 3.08c1.371-.588 2.907-.941 4.401-.806 2.03.177 3.925.912 5.46 2.224a10.7 10.7 0 0 1 2.642 3.36c1.707 3.383 1.036 7.45-1.312 10.338a10.4 10.4 0 0 1-3.089 2.442 9.6 9.6 0 0 1-4.766 1.047l-.176-.018a8.7 8.7 0 0 1-3.16-.753m11.462-10.202c-.541-3.678-3.083-6.131-6.731-6.696a7.3 7.3 0 0 0-3.313.335 7.83 7.83 0 0 0-5.648 7.685 7.68 7.68 0 0 0 3.477 6.26 8.8 8.8 0 0 0 4.784 1.318 5.4 5.4 0 0 0 1.688-.265c.96-.306 1.854-.706 2.648-1.33a7.77 7.77 0 0 0 3.095-7.307M5.336 15.508c.941 1.624 2.595 2.942 4.495 3.436.702.194 1.421.312 2.148.353a.04.04 0 0 0 .012-.023V17.89l.005-3.313c0-.382.471-.735.795-.982l.117-.088c.177-.136.236-.189.271-.342 0 0-.012-.47-.006-.847v-1.765c-.03-.147-.259-.265-.447-.365a2 2 0 0 1-.177-.094c-.158-.106-.553-.441-.553-.677V4.505a.3.3 0 0 0-.023-.117l-.012-.036q-.01-.059-.07-.058c-.83.017-1.648.253-2.419.511C8.09 5.276 7.025 6.041 6.06 7.13c-.789.882-1.26 2.118-1.524 3.247-.289 1.224-.2 2.566.206 3.784.164.512.364.959.588 1.353z"/>
</svg>
